X: 21072
M: 6/8
L: 1/8
K: Bb
V: 1 name="5"
EcB AGF | BB/A/B/c/ dcB | F2F F/A/G/B/A/c/ | BBB B2 H|]
c/d/ |\
e2d cgf | f2e dGA | BAG Fdc | B3 ACD |\
E2D CGF | F2E D2F | E2E EDE | B3- "^D.C."B2 |]
d |\
d3 edc | d2B G2B | ccc cBc | BB/c/A/B/ G2d |\
d3 edc | d2B G2B | ABc D=E^F | G3 "^D.C."G2 |]


